!!!COM: Robert Schumann
!!!CNT: Deutscher
!!!TXO: Deutsche 
!!!OTL: Zwielicht
!!!OPR: Liederkreis
!!!OPS: Opus 39
!!!ONM: No. 10
!!!LYR: Eichendorff
!!!ENC: Brian Bice
!!!YOR: Sa2mtliche Lieder, vol. 1, C.F. Peters
!!!ODT: 1840/
!!NB: Vocal melody and text only encoded.
**kern	**silbe
*clefG2	*
*k[f#]	*
*M4/4	*
=8	=8
{4.g	{Da2mm'-
8g	-rung
4g	will
4cc#	die
=9	=9
4.dd	Flu2-
8cc#	-gel
4b	sprei-
4a}	-ten,}
=10	=10
{4.g#	{schau-
8g#	-rig
4gg#	ru2h-
4b	-ren
=11	=11
(8b	sich
4ccn)	|
8b	die
4a	Ba2u-
4gn}	-me,}
=12	=12
{4.f#	{Wol-
8f#	-ken
4f#	ziehn
4f#	wie
=13	=13
4.g	schwe-
8g	-re
4g	Tra2u-
4e}	-me}
=14	=14
4r	.
{8e	{was
8e	will
8e	dies-
8e	-es
8e	Grau'n
8d#	be-
=15	=15
4g	-deu-
4f#}	-ten?}
2r	.
=16	=16
{4.g	{Hast
8g	ein
4g	Reh
4cc#	du,
=17	=17
4.dd	lieb
8cc#	vor
4b	an-
4a}	-dern,}
=18	=18
{4.g#	{lass
8g#	es
4g#	nicht
4b	al-
=19	=19
4.ccn	-lei-
8b	-ne
4a	gra-
4gn}	-sen,}
=20	=20
{4.f#	{Ja2-
8f#	-ger
4f#	zieh'n
4f#	im
=21	=21
4.g	Wald
8g	und
4g	bla-
4e}	-sen,}
=22	=22
4r	.
{8e	{Stim-
8e	-men
8e	hin
8e	und
8e	wie-
8d#	-der
=23	=23
4g	wan-
4f#}	-dern.}
2r	.
=24	=24
{4.g	{Hast
8g	du
4g	ei-
4cc#	-nen
=25	=25
4.dd	Freund
8cc#	hie-
4b	-nie-
4a}	-den,}
=26	=26
{4.g#	{trau'
8g#	ihm
4g#	nicht
4dd#	zu
=27	=27
(8ee	die-
4g#)	|
8dd#	-ser
4.cc#	Stun-
8b}	-de,}
=28	=28
{4.a	{freund-
8b	-lich
4.g#	wohl
8g#	mit
=29	=29
4.a	Aug'
8b	und
4.g#	Mun-
8g#}	-de,}
=30	=30
{4.f#	{sinnt
8g#	er
4.e	Krieg
8e	im
=31	=31
4.f#	tu2ck'-
8g#	-schen
4.e	Frie-
8e}	-den.}
=33	=33
{4gn	{Was
4gn	heut'
4.gn	ge-
8cc#	-het
=34	=34
4.dd	mu2-
8cc#	-de
4b	un-
4an}	-ter,}
=35	=35
{4.g#	{hebt
8g#	sich
4g#	mor-
4b	-gen
=36	=36
4.ccn	neu-
8b	-ge-
4a	-bo-
4gn}	-ren.}
=37	=37
{4.f#	{Man-
8f#	-ches
4f#	geht
4f#	in
=38	=38
(8a	Nacht
4g)	|
8g	ver-
4g	-lo-
4g}	-ren}
=39	=39
{8.g	{hu2-
16A#	-te
4A#	dich,
8r	.
8A#	sei
8A#	wach
8A#	und
=40	=40
8B	mun-
8B}	-ter!}
4r	.
2r	.
*-	*-
